src/images_karasa_jaga_svg/cmd/sc_insertlinebreak.svg

<svg enable-background="new 0 0 128 128" height="16" viewBox="0 0 16 16" width="16" xmlns="http://www.w3.org/2000/svg" xmlns:xlink="http://www.w3.org/1999/xlink"><linearGradient id="a" gradientUnits="userSpaceOnUse" x1="85.219681" x2="61.336319" y1="93.219681" y2="69.336319"><stop offset="0"/><stop offset="1" stop-color="#393b38"/></linearGradient><linearGradient id="b" gradientUnits="userSpaceOnUse" x1="96" x2="88.000198" y1="104" y2="96.000198"><stop offset="0" stop-color="#888a85"/><stop offset=".0072" stop-color="#8c8e89"/><stop offset=".0673" stop-color="#abaca9"/><stop offset=".1347" stop-color="#c5c6c4"/><stop offset=".2115" stop-color="#dbdbda"/><stop offset=".3012" stop-color="#ebebeb"/><stop offset=".4122" stop-color="#f7f7f6"/><stop offset=".5679" stop-color="#fdfdfd"/><stop offset="1" stop-color="#fff"/></linearGradient><radialGradient id="c" cx="102" cy="112.3047" gradientTransform="matrix(.9787234 0 0 .9818182 1.361705 1.163636)" gradientUnits="userSpaceOnUse" r="139.55859"><stop offset="0" stop-color="#535557"/><stop offset=".11366145" stop-color="#898a8c"/><stop offset=".20296688" stop-color="#ececec"/><stop offset=".2363" stop-color="#fafafa"/><stop offset=".2722" stop-color="#fff"/><stop offset=".5313" stop-color="#fafafa"/><stop offset=".8449" stop-color="#ebecec"/><stop offset="1" stop-color="#e1e2e3"/></radialGradient><radialGradient id="d" cx="102" cy="112.3047" gradientUnits="userSpaceOnUse" r="139.5585"><stop offset="0" stop-color="#00537d"/><stop offset=".0151" stop-color="#186389"/><stop offset=".0558" stop-color="#558ca8"/><stop offset=".0964" stop-color="#89afc3"/><stop offset=".1357" stop-color="#b3ccd8"/><stop offset=".1737" stop-color="#d4e2e9"/><stop offset=".2099" stop-color="#ecf2f5"/><stop offset=".2435" stop-color="#fafcfd"/><stop offset=".2722" stop-color="#fff"/></radialGradient><filter id="e"><feGaussianBlur stdDeviation="1.0394514"/></filter><filter id="f"><feGaussianBlur stdDeviation=".50063244"/></filter><filter id="g"><feGaussianBlur stdDeviation=".4901192"/></filter><filter id="h"><feGaussianBlur stdDeviation=".90565481"/></filter><filter id="i" height="1.247155" width="1.247155" x="-.123577" y="-.123577"><feGaussianBlur stdDeviation="1.7720846"/></filter><g transform="matrix(.125 0 0 .125 0 .00001)"><path d="m23 9 .04082 112h61.13118c.53 0 1.039-.211 1.414-.586l32.828-32.828c.375-.375.586-.884.586-1.414v-77.172z" filter="url(#e)" opacity=".715069" transform="matrix(1.0416667 0 0 1.0357143 -9.958333 -3.321534)"/><path d="m24.919999 10.931136v108.137934l58.676001-.0001c.53 0 1.039-.211 1.414-.586l31.484-31.765936c.375-.375.586-.884.586-1.414v-74.371898z" filter="url(#f)" opacity=".89589" transform="matrix(1.0416667 0 0 1.0357143 -9.958333 -3.321534)"/><path d="m23 9.9655172.040816 111.0344828h61.131184c.53 0 1.039-.211 1.414-.586 13.296921-8.21061 24.14086-19.26784 32.828-32.828.375-.375.586-.884.586-1.414v-76.2064828z" filter="url(#e)" opacity=".835616" transform="matrix(1.0416667 0 0 1.0357143 -9.958333 -3.321534)"/><path d="m16.000002 8v112h61.172c.53 0 1.039-.211 1.414-.586l32.827998-32.828c.375-.375.586-.884.586-1.414v-77.172z" fill="url(#d)"/><path d="m24.678725 16c-.539276 0-.978723.440836-.978723.981818l.3 94.036362c0 .54197.439447.98182.978723.98182h51.913022c.257404 0 .509915-.10407.691957-.28767l26.129526-26.23113c.18303-.1836.28677-.435927.28677-.694145v-67.805237c0-.540982-.43847-.981818-.97872-.981818z" fill="url(#c)"/><g fill="#7e7e7e"><path d="m104 24v8h-80v-8z" stroke-width="1.926119"/><path d="m104 40v8h-80v-8z" stroke-width="1.926119"/><path d="m88 96v8h-64v-8z" stroke-width="1.722773"/></g><g fill="#f60" transform="translate(0 -8)"><path d="m48 80h32v8h-32z" stroke-width="2.520702"/><path d="m80 64v24h-8v-24z" stroke-width="1.864084"/><path d="m56 72-16 12 16 12z" fill-rule="evenodd"/></g><g transform="translate(.000002)"><path d="m111.414 86.586c.25-.25-26.379-1.586-31.414-1.586-1.654 0-3 1.346-3 3 0 5.035 1.336 31.664 1.586 31.414z" filter="url(#i)" opacity=".906849"/><path d="m111.414 86.586c.375-.375-21.97-.586-31.414-.586-1.103 0-2 .897-2 2 0 9.444.211 31.789.586 31.414z" filter="url(#h)" opacity=".2"/><path d="m111.414 86.586c.239-.239-21.607.414-31.414.414-.553 0-1 .447-1 1 0 9.807-.653 31.653-.414 31.414z" fill="url(#a)" filter="url(#g)" opacity=".1"/><path d="m78.586 119.414s11.914-9.914 17.414-15.414 15.414-17.414 15.414-17.414-21.164 1.414-31.414 1.414c0 10.25-1.414 31.414-1.414 31.414z" fill="url(#b)"/></g></g></svg>

<?xml version="1.0" encoding="UTF-8" standalone="no"?>
<svg
   xmlns:dc="http://purl.org/dc/elements/1.1/"
   xmlns:cc="http://creativecommons.org/ns#"
   xmlns:rdf="http://www.w3.org/1999/02/22-rdf-syntax-ns#"
   xmlns:svg="http://www.w3.org/2000/svg"
   xmlns="http://www.w3.org/2000/svg"
   xmlns:sodipodi="http://sodipodi.sourceforge.net/DTD/sodipodi-0.dtd"
   xmlns:inkscape="http://www.inkscape.org/namespaces/inkscape"
   enable-background="new 0 0 128 128"
   height="128"
   viewBox="0 0 128 128"
   width="128"
   version="1.1"
   id="svg2921"
   sodipodi:docname="sc_insertlinebreak.svg"
   inkscape:version="0.92.3 (unknown)"
   inkscape:export-filename="/home/rizmut/Dokumen/Rizmut/Github/libreoffice-style-karasa-jaga/build/images_karasa_jaga/cmd/sc_insertlinebreak.png"
   inkscape:export-xdpi="12"
   inkscape:export-ydpi="12">
  <metadata
     id="metadata2927">
    <rdf:RDF>
      <cc:Work
         rdf:about="">
        <dc:format>image/svg+xml</dc:format>
        <dc:type
           rdf:resource="http://purl.org/dc/dcmitype/StillImage" />
        <dc:title></dc:title>
      </cc:Work>
    </rdf:RDF>
  </metadata>
  <defs
     id="defs2925" />
  <sodipodi:namedview
     pagecolor="#ffffff"
     bordercolor="#666666"
     borderopacity="1"
     objecttolerance="10"
     gridtolerance="10"
     guidetolerance="10"
     inkscape:pageopacity="0"
     inkscape:pageshadow="2"
     inkscape:window-width="1366"
     inkscape:window-height="706"
     id="namedview2923"
     showgrid="true"
     inkscape:zoom="3.6875"
     inkscape:cx="23.297595"
     inkscape:cy="57.108938"
     inkscape:window-x="0"
     inkscape:window-y="0"
     inkscape:window-maximized="1"
     inkscape:current-layer="g3482">
    <inkscape:grid
       type="xygrid"
       id="grid4058"
       spacingx="4"
       spacingy="4"
       empspacing="2" />
  </sodipodi:namedview>
  <linearGradient
     id="a"
     gradientUnits="userSpaceOnUse"
     x1="85.219681"
     x2="61.336319"
     y1="93.219681"
     y2="69.336319">
    <stop
       offset="0"
       id="stop2826" />
    <stop
       offset="1"
       stop-color="#393b38"
       id="stop2828" />
  </linearGradient>
  <linearGradient
     id="b"
     gradientUnits="userSpaceOnUse"
     x1="96"
     x2="88.0002"
     y1="104"
     y2="96.0002">
    <stop
       offset="0"
       stop-color="#888a85"
       id="stop2831" />
    <stop
       offset=".0072"
       stop-color="#8c8e89"
       id="stop2833" />
    <stop
       offset=".0673"
       stop-color="#abaca9"
       id="stop2835" />
    <stop
       offset=".1347"
       stop-color="#c5c6c4"
       id="stop2837" />
    <stop
       offset=".2115"
       stop-color="#dbdbda"
       id="stop2839" />
    <stop
       offset=".3012"
       stop-color="#ebebeb"
       id="stop2841" />
    <stop
       offset=".4122"
       stop-color="#f7f7f6"
       id="stop2843" />
    <stop
       offset=".5679"
       stop-color="#fdfdfd"
       id="stop2845" />
    <stop
       offset="1"
       stop-color="#fff"
       id="stop2847" />
  </linearGradient>
  <radialGradient
     id="c"
     cx="102"
     cy="112.3047"
     gradientTransform="matrix(.9787234 0 0 .9818182 1.361705 1.163636)"
     gradientUnits="userSpaceOnUse"
     r="139.55859">
    <stop
       offset="0"
       stop-color="#535557"
       id="stop2850" />
    <stop
       offset=".11366145"
       stop-color="#898a8c"
       id="stop2852" />
    <stop
       offset=".20296688"
       stop-color="#ececec"
       id="stop2854" />
    <stop
       offset=".2363"
       stop-color="#fafafa"
       id="stop2856" />
    <stop
       offset=".2722"
       stop-color="#fff"
       id="stop2858" />
    <stop
       offset=".5313"
       stop-color="#fafafa"
       id="stop2860" />
    <stop
       offset=".8449"
       stop-color="#ebecec"
       id="stop2862" />
    <stop
       offset="1"
       stop-color="#e1e2e3"
       id="stop2864" />
  </radialGradient>
  <radialGradient
     id="d"
     cx="102.000002"
     cy="112.3047"
     gradientUnits="userSpaceOnUse"
     r="139.5585">
    <stop
       offset="0"
       stop-color="#00537d"
       id="stop2867" />
    <stop
       offset=".0151"
       stop-color="#186389"
       id="stop2869" />
    <stop
       offset=".0558"
       stop-color="#558ca8"
       id="stop2871" />
    <stop
       offset=".0964"
       stop-color="#89afc3"
       id="stop2873" />
    <stop
       offset=".1357"
       stop-color="#b3ccd8"
       id="stop2875" />
    <stop
       offset=".1737"
       stop-color="#d4e2e9"
       id="stop2877" />
    <stop
       offset=".2099"
       stop-color="#ecf2f5"
       id="stop2879" />
    <stop
       offset=".2435"
       stop-color="#fafcfd"
       id="stop2881" />
    <stop
       offset=".2722"
       stop-color="#fff"
       id="stop2883" />
  </radialGradient>
  <filter
     id="e">
    <feGaussianBlur
       stdDeviation="1.0394514"
       id="feGaussianBlur2886" />
  </filter>
  <filter
     id="f">
    <feGaussianBlur
       stdDeviation=".50063244"
       id="feGaussianBlur2889" />
  </filter>
  <filter
     id="g">
    <feGaussianBlur
       stdDeviation=".4901192"
       id="feGaussianBlur2892" />
  </filter>
  <filter
     id="h">
    <feGaussianBlur
       stdDeviation=".90565481"
       id="feGaussianBlur2895" />
  </filter>
  <filter
     id="i"
     height="1.247155"
     width="1.247155"
     x="-.123577"
     y="-.123577">
    <feGaussianBlur
       stdDeviation="1.7720846"
       id="feGaussianBlur2898" />
  </filter>
  <g
     id="g3482">
    <path
       id="path2901"
       transform="matrix(1.0416667 0 0 1.0357143 -9.958333 -3.321534)"
       opacity=".715069"
       filter="url(#e)"
       d="m23 9 .040816 112h61.131184c.53 0 1.039-.211 1.414-.586l32.828-32.828c.375-.375.586-.884.586-1.414v-77.172z" />
    <path
       id="path2903"
       transform="matrix(1.0416667 0 0 1.0357143 -9.958333 -3.321534)"
       opacity=".89589"
       filter="url(#f)"
       d="m24.919999 10.931136v108.137934l58.676001-.0001c.53 0 1.039-.211 1.414-.586l31.484-31.765936c.375-.375.586-.884.586-1.414v-74.371898z" />
    <path
       id="path2905"
       transform="matrix(1.0416667 0 0 1.0357143 -9.958333 -3.321534)"
       opacity=".835616"
       filter="url(#e)"
       d="m23 9.9655172.040816 111.0344828h61.131184c.53 0 1.039-.211 1.414-.586 13.296921-8.21061 24.14086-19.26784 32.828-32.828.375-.375.586-.884.586-1.414v-76.2064828z" />
    <path
       id="path2907"
       fill="url(#d)"
       d="m16.000002 8v112h61.172c.53 0 1.039-.211 1.414-.586l32.827998-32.828c.375-.375.586-.884.586-1.414v-77.172z" />
    <path
       id="path2909"
       fill="url(#c)"
       d="m24.678725 16c-.539276 0-.978723.440836-.978723.981818l.3 94.036362c0 .54197.439447.98182.978723.98182h51.913022c.257404 0 .509915-.10407.691957-.28767l26.129526-26.23113c.18303-.1836.28677-.435927.28677-.694145v-67.805237c0-.540982-.43847-.981818-.97872-.981818z" />
    <path
       sodipodi:nodetypes="ccccc"
       style="fill:#7e7e7e;fill-opacity:1;stroke-width:1.92611885"
       id="path67"
       d="m 104,24 v 8 H 24 v -8 z"
       inkscape:connector-curvature="0" />
    <path
       inkscape:connector-curvature="0"
       d="m 104,40 v 8 H 24 v -8 z"
       id="path4068"
       style="fill:#7e7e7e;fill-opacity:1;stroke-width:1.92611885"
       sodipodi:nodetypes="ccccc" />
    <path
       sodipodi:nodetypes="ccccc"
       style="fill:#7e7e7e;fill-opacity:1;stroke-width:1.72277319"
       id="path4070"
       d="m 88,96 v 8 H 24 v -8 z"
       inkscape:connector-curvature="0" />
    <g
       id="g2132"
       transform="translate(0,-8)">
      <path
         style="fill:#ff6600;stroke-width:2.52070165"
         inkscape:connector-curvature="0"
         id="path4072"
         d="m 48,80 h 32 v 8 H 48 Z"
         sodipodi:nodetypes="ccccc" />
      <path
         sodipodi:nodetypes="ccccc"
         d="M 80,64 V 88 H 72 V 64 Z"
         id="path148"
         inkscape:connector-curvature="0"
         style="fill:#ff6600;stroke-width:1.86408389" />
      <path
         inkscape:connector-curvature="0"
         id="path2127"
         d="M 56,72 40,84 56,96 Z"
         style="fill:#ff6600;fill-opacity:1;fill-rule:evenodd;stroke:none;stroke-width:1px;stroke-linecap:butt;stroke-linejoin:miter;stroke-opacity:1" />
    </g>
    <g
       id="g2919"
       transform="translate(.000002)">
      <path
         id="path2911"
         opacity=".906849"
         filter="url(#i)"
         d="m111.414 86.586c.25-.25-26.379-1.586-31.414-1.586-1.654 0-3 1.346-3 3 0 5.035 1.336 31.664 1.586 31.414z" />
      <path
         id="path2913"
         opacity=".2"
         filter="url(#h)"
         d="m111.414 86.586c.375-.375-21.97-.586-31.414-.586-1.103 0-2 .897-2 2 0 9.444.211 31.789.586 31.414z" />
      <path
         id="path2915"
         opacity=".1"
         filter="url(#g)"
         fill="url(#a)"
         d="m111.414 86.586c.239-.239-21.607.414-31.414.414-.553 0-1 .447-1 1 0 9.807-.653 31.653-.414 31.414z" />
      <path
         id="path2917"
         fill="url(#b)"
         d="m78.586 119.414s11.914-9.914 17.414-15.414 15.414-17.414 15.414-17.414-21.164 1.414-31.414 1.414c0 10.25-1.414 31.414-1.414 31.414z" />
    </g>
  </g>
</svg>
